X:101
T:Shelf #1, The
R:polka
D:Skylark: Raining Bicycles
Z:id:hn-polka-101
M:2/4
L:1/8
K:D
(3A/B/c/|df Aa|Ad' Aa|A/c/e/c/ A/c/e/g/|fd d/c/B/c/|
df Aa|Ad' Aa|A/c/e/c/ A/c/e/g/|fd d:|
|:e|f2 f>e|fa a/g/f|g2 g>a|b/a/g/f/ ag|
f>e ff/g/|a/g/f/a/ g (3e/f/g/|ad f/e/d/c/|ed d:|
|:(3a/b/c'/|d'f a/f/d|cB B>d|cA B/c/d/e/|df a (3d/f/a/|
d'f a/f/d|cB B>d|cA B/c/d/e/|fd d:|
|:z|A/B/c/d/ e/f/g/a/|ba/^g/ a2|A/B/c/d/ e/f/g|a/f/d a/f/d|
A/B/c/d/ e/f/g/a/|ba/^g/ a2|A/B/c/d/ e/f/g/e/|fd d:|

